client/public/img/bag__dark__icon.svg

<svg width="18" height="20" viewBox="0 0 18 20" fill="none" xmlns="http://www.w3.org/2000/svg">
<path fill-rule="evenodd" clip-rule="evenodd" d="M8.98885 0C11.3911 0 13.3755 1.92228 13.6202 4.38082L13.6885 4.38167C15.0211 4.38167 16.6413 5.31112 17.1881 7.91804L17.9133 13.8123C18.1733 15.7147 17.848 17.2406 16.9446 18.3351C16.0458 19.4238 14.6231 20 12.8301 20H5.15807C3.1886 20 1.81649 19.4933 0.96271 18.4519C0.105257 17.4076 -0.18148 15.8411 0.110771 13.7969L0.823937 7.98077C1.29264 5.31402 3.00663 4.38167 4.3337 4.38167C4.44827 3.27218 4.92463 2.2167 5.68035 1.42555C6.54884 0.51926 7.74633 0 8.96955 0H8.98885ZM13.6885 5.82942H4.3337C3.92841 5.82942 2.57377 6.00122 2.18502 8.20566L1.47553 13.9967C1.24485 15.621 1.42314 16.7966 2.00673 17.5079C2.58296 18.2106 3.61411 18.5522 5.15807 18.5522H12.8301C13.7933 18.5522 15.1084 18.3505 15.9024 17.3873C16.5329 16.6238 16.7498 15.4869 16.5476 14.0073L15.8317 8.16609C15.5265 6.72702 14.7215 5.82942 13.6885 5.82942ZM11.6692 8.51654C12.0497 8.51654 12.3796 8.84083 12.3796 9.24041C12.3796 9.63999 12.092 9.96429 11.7115 9.96429H11.6692C11.2887 9.96429 10.9799 9.63999 10.9799 9.24041C10.9799 8.84083 11.2887 8.51654 11.6692 8.51654ZM6.31118 8.51654C6.69165 8.51654 7.02158 8.84083 7.02158 9.24041C7.02158 9.63999 6.73301 9.96429 6.35253 9.96429H6.31118C5.9307 9.96429 5.6219 9.63999 5.6219 9.24041C5.6219 8.84083 5.9307 8.51654 6.31118 8.51654ZM8.9861 1.44775H8.97231C8.10751 1.44775 7.26476 1.81355 6.65361 2.45152C6.15577 2.97201 5.83017 3.65624 5.72485 4.38122L12.2309 4.38149C11.9947 2.7231 10.6292 1.44775 8.9861 1.44775Z" fill="#3D639D"/>
</svg>

<svg xmlns="http://www.w3.org/2000/svg" width="18" height="20" fill="none" xmlns:v="https://vecta.io/nano"><path fill-rule="evenodd" d="M8.989 0c2.402 0 4.387 1.922 4.631 4.381l.068.001c1.333 0 2.953.929 3.5 3.536l.725 5.894c.26 1.902-.065 3.428-.969 4.523C16.046 19.424 14.623 20 12.83 20H5.158c-1.969 0-3.342-.507-4.195-1.548s-1.144-2.611-.852-4.655l.713-5.816c.469-2.667 2.183-3.599 3.51-3.599A5.05 5.05 0 0 1 5.68 1.426C6.549.519 7.746 0 8.97 0h.019zm4.7 5.829H4.334c-.405 0-1.76.172-2.149 2.376l-.709 5.791c-.231 1.624-.052 2.8.531 3.511.576.703 1.607 1.044 3.151 1.044h7.672c.963 0 2.278-.202 3.072-1.165.631-.764.847-1.9.645-3.38l-.716-5.841c-.305-1.439-1.11-2.337-2.143-2.337zm-2.019 2.687c.38 0 .71.324.71.724s-.288.724-.668.724h-.042c-.38 0-.689-.324-.689-.724s.309-.724.689-.724zm-5.358 0c.38 0 .71.324.71.724s-.289.724-.669.724h-.041c-.38 0-.689-.324-.689-.724s.309-.724.689-.724zm2.675-7.069h-.014a3.23 3.23 0 0 0-2.319 1.004 3.54 3.54 0 0 0-.929 1.93h6.506c-.236-1.658-1.602-2.934-3.245-2.934z" fill="#3d639d"/></svg>
